symbolic/32x32/apps/slade.svg

<svg xmlns="http://www.w3.org/2000/svg" width="32" height="32" version="1">
 <path style="opacity:0.2" d="M 15.199219,2 C 14.534419,2 14,2.5344187 14,3.1992188 v 0.90625 A 12.5,12.5 0 0 0 12.326172,4.4160156 L 11.996094,3.5820312 C 11.751292,2.9639436 11.05754,2.6634026 10.439453,2.9082031 L 9.8808594,3.1289062 C 9.2627754,3.3737071 8.9622314,4.06746 9.2070312,4.6855469 l 0.3320313,0.8398437 a 12.5,12.5 0 0 0 -1.75,1.1425782 L 7.15625,6.0351562 c -0.4700847,-0.4700846 -1.2271811,-0.4700845 -1.6972656,0 L 5.0351562,6.4589844 c -0.4700845,0.4700845 -0.4700845,1.2271809 0,1.6972656 L 5.6738281,8.7949219 A 12.5,12.5 0 0 0 4.515625,10.535156 L 3.6855469,10.207031 C 3.0674597,9.9622307 2.373707,10.262772 2.1289062,10.880859 l -0.2207031,0.558594 c -0.2448007,0.618087 0.055741,1.31184 0.6738281,1.556641 l 0.84375,0.333984 A 12.5,12.5 0 0 0 3.1015625,15 H 2.1992188 C 1.5344185,15 1,15.534419 1,16.199219 v 0.601562 C 1,17.465581 1.5344187,18 2.1992188,18 h 0.90625 a 12.5,12.5 0 0 0 0.3105468,1.673828 L 2.5820312,20.003906 C 1.9639473,20.248708 1.6634031,20.94246 1.9082031,21.560547 l 0.2207031,0.558594 c 0.2448012,0.618084 0.9385537,0.918628 1.5566407,0.673828 l 0.8398437,-0.332031 a 12.5,12.5 0 0 0 1.1425782,1.75 L 5.0351562,24.84375 c -0.4700845,0.470085 -0.4700845,1.227181 0,1.697266 l 0.4238282,0.423828 c 0.4700845,0.470084 1.2271809,0.470084 1.6972656,0 l 0.6386719,-0.638672 a 12.5,12.5 0 0 0 1.7402343,1.158203 l -0.328125,0.830078 c -0.2448005,0.618087 0.055741,1.31184 0.6738282,1.556641 l 0.5585936,0.220703 c 0.618087,0.2448 1.31184,-0.05574 1.556641,-0.673828 l 0.333984,-0.84375 A 12.5,12.5 0 0 0 14,28.898438 v 0.902343 C 14,30.465581 14.534419,31 15.199219,31 h 0.601562 C 16.465581,31 17,30.465581 17,29.800781 v -0.90625 a 12.5,12.5 0 0 0 1.673828,-0.310547 l 0.330078,0.833985 c 0.244801,0.618084 0.938554,0.918628 1.556641,0.673828 l 0.558594,-0.220703 c 0.618084,-0.244801 0.918629,-0.938554 0.673828,-1.556641 l -0.332031,-0.839844 a 12.5,12.5 0 0 0 1.75,-1.142578 l 0.632812,0.632813 c 0.470085,0.470084 1.227181,0.470084 1.697266,0 l 0.423828,-0.423828 c 0.470084,-0.470085 0.470084,-1.227181 0,-1.697266 l -0.638672,-0.638672 a 12.5,12.5 0 0 0 1.158203,-1.740234 l 0.830078,0.328125 c 0.618087,0.2448 1.31184,-0.05574 1.556641,-0.673828 l 0.220703,-0.558594 c 0.2448,-0.618087 -0.05574,-1.311839 -0.673828,-1.556641 l -0.84375,-0.333984 A 12.5,12.5 0 0 0 27.898438,18 h 0.902343 C 29.465581,18 30,17.465581 30,16.800781 V 16.199219 C 30,15.534419 29.465581,15 28.800781,15 h -0.90625 a 12.5,12.5 0 0 0 -0.310547,-1.673828 l 0.833985,-0.330078 c 0.618083,-0.244801 0.918629,-0.938554 0.673828,-1.556641 L 28.871094,10.880859 C 28.626293,10.262773 27.932541,9.9622306 27.314453,10.207031 l -0.839844,0.332032 A 12.5,12.5 0 0 0 25.332031,8.7890625 L 25.964844,8.15625 c 0.470084,-0.4700846 0.470084,-1.2271811 0,-1.6972656 L 25.541016,6.0351562 c -0.470085,-0.4700845 -1.227181,-0.4700845 -1.697266,0 L 23.205078,6.6738281 A 12.5,12.5 0 0 0 21.464844,5.515625 L 21.792969,4.6855469 C 22.037769,4.06746 21.737225,3.3737071 21.119141,3.1289062 L 20.560547,2.9082031 C 19.94246,2.6634026 19.248708,2.963944 19.003906,3.5820312 l -0.333984,0.84375 A 12.5,12.5 0 0 0 17,4.1015625 V 3.1992188 C 17,2.5344185 16.465581,2 15.800781,2 Z"/>
 <path style="fill:#574b37" d="M 15.199219 1 C 14.534419 1 14 1.5344187 14 2.1992188 L 14 3.1054688 A 12.5 12.5 0 0 0 12.326172 3.4160156 L 11.996094 2.5820312 C 11.751292 1.9639436 11.05754 1.6634026 10.439453 1.9082031 L 9.8808594 2.1289062 C 9.2627754 2.3737071 8.9622314 3.06746 9.2070312 3.6855469 L 9.5390625 4.5253906 A 12.5 12.5 0 0 0 7.7890625 5.6679688 L 7.15625 5.0351562 C 6.6861653 4.5650716 5.9290689 4.5650717 5.4589844 5.0351562 L 5.0351562 5.4589844 C 4.5650717 5.9290689 4.5650717 6.6861653 5.0351562 7.15625 L 5.6738281 7.7949219 A 12.5 12.5 0 0 0 4.515625 9.5351562 L 3.6855469 9.2070312 C 3.0674597 8.9622307 2.373707 9.2627724 2.1289062 9.8808594 L 1.9082031 10.439453 C 1.6634024 11.05754 1.9639438 11.751293 2.5820312 11.996094 L 3.4257812 12.330078 A 12.5 12.5 0 0 0 3.1015625 14 L 2.1992188 14 C 1.5344185 14 1 14.534419 1 15.199219 L 1 15.800781 C 1 16.465581 1.5344187 17 2.1992188 17 L 3.1054688 17 A 12.5 12.5 0 0 0 3.4160156 18.673828 L 2.5820312 19.003906 C 1.9639473 19.248708 1.6634031 19.94246 1.9082031 20.560547 L 2.1289062 21.119141 C 2.3737074 21.737225 3.0674599 22.037769 3.6855469 21.792969 L 4.5253906 21.460938 A 12.5 12.5 0 0 0 5.6679688 23.210938 L 5.0351562 23.84375 C 4.5650717 24.313835 4.5650717 25.070931 5.0351562 25.541016 L 5.4589844 25.964844 C 5.9290689 26.434928 6.6861653 26.434928 7.15625 25.964844 L 7.7949219 25.326172 A 12.5 12.5 0 0 0 9.5351562 26.484375 L 9.2070312 27.314453 C 8.9622307 27.93254 9.2627725 28.626293 9.8808594 28.871094 L 10.439453 29.091797 C 11.05754 29.336597 11.751293 29.036053 11.996094 28.417969 L 12.330078 27.574219 A 12.5 12.5 0 0 0 14 27.898438 L 14 28.800781 C 14 29.465581 14.534419 30 15.199219 30 L 15.800781 30 C 16.465581 30 17 29.465581 17 28.800781 L 17 27.894531 A 12.5 12.5 0 0 0 18.673828 27.583984 L 19.003906 28.417969 C 19.248707 29.036053 19.94246 29.336597 20.560547 29.091797 L 21.119141 28.871094 C 21.737225 28.626293 22.03777 27.93254 21.792969 27.314453 L 21.460938 26.474609 A 12.5 12.5 0 0 0 23.210938 25.332031 L 23.84375 25.964844 C 24.313835 26.434928 25.070931 26.434928 25.541016 25.964844 L 25.964844 25.541016 C 26.434928 25.070931 26.434928 24.313835 25.964844 23.84375 L 25.326172 23.205078 A 12.5 12.5 0 0 0 26.484375 21.464844 L 27.314453 21.792969 C 27.93254 22.037769 28.626293 21.737225 28.871094 21.119141 L 29.091797 20.560547 C 29.336597 19.94246 29.036053 19.248708 28.417969 19.003906 L 27.574219 18.669922 A 12.5 12.5 0 0 0 27.898438 17 L 28.800781 17 C 29.465581 17 30 16.465581 30 15.800781 L 30 15.199219 C 30 14.534419 29.465581 14 28.800781 14 L 27.894531 14 A 12.5 12.5 0 0 0 27.583984 12.326172 L 28.417969 11.996094 C 29.036052 11.751293 29.336598 11.05754 29.091797 10.439453 L 28.871094 9.8808594 C 28.626293 9.2627727 27.932541 8.9622306 27.314453 9.2070312 L 26.474609 9.5390625 A 12.5 12.5 0 0 0 25.332031 7.7890625 L 25.964844 7.15625 C 26.434928 6.6861654 26.434928 5.9290689 25.964844 5.4589844 L 25.541016 5.0351562 C 25.070931 4.5650717 24.313835 4.5650717 23.84375 5.0351562 L 23.205078 5.6738281 A 12.5 12.5 0 0 0 21.464844 4.515625 L 21.792969 3.6855469 C 22.037769 3.06746 21.737225 2.3737071 21.119141 2.1289062 L 20.560547 1.9082031 C 19.94246 1.6634026 19.248708 1.963944 19.003906 2.5820312 L 18.669922 3.4257812 A 12.5 12.5 0 0 0 17 3.1015625 L 17 2.1992188 C 17 1.5344185 16.465581 1 15.800781 1 L 15.199219 1 z"/>
 <path style="opacity:0.2" d="M 20.999996,7.9999998 21,13.966833 c 0,0 -3.050372,0 -3.050372,1.416667 0,2.267025 2.223797,2.425876 2.062743,4.659667 -0.403014,5.622972 -6.61331,5.132657 -10.004458,4.837729 L 10,19.743232 c 0,0 1.047111,0.36802 2.083356,0.28743 C 12.75,20.041662 13.572193,19.208304 13.4375,18.625 13.572193,17.083304 11.005402,15.605969 11,13.734479 11.042288,7.9999998 18.9375,7.9999998 21,7.9999998 Z"/>
 <path style="fill:#3264e0" d="M 20.999996,6.9999998 21,12.966833 c 0,0 -3.050372,0 -3.050372,1.416667 0,2.267025 2.223797,2.425876 2.062743,4.659667 -0.403014,5.622972 -6.61331,5.132657 -10.004458,4.837729 L 10,18.743232 c 0,0 1.047111,0.36802 2.083356,0.28743 C 12.75,19.041662 13.572193,18.208304 13.4375,17.625 13.572193,16.083304 11.005402,14.605969 11,12.734479 11.042288,6.9999998 18.9375,6.9999998 21,6.9999998 Z"/>
 <path style="opacity:0.1;fill:#ffffff" d="M 15.199219 1 C 14.534419 1 14 1.5344187 14 2.1992188 L 14 3.1054688 A 12.5 12.5 0 0 0 12.326172 3.4160156 L 11.996094 2.5820312 C 11.751292 1.9639437 11.05754 1.6634026 10.439453 1.9082031 L 9.8808594 2.1289062 C 9.2627754 2.3737071 8.9622315 3.06746 9.2070312 3.6855469 L 9.2324219 3.75 C 9.3562491 3.4772984 9.5789227 3.2484925 9.8808594 3.1289062 L 10.439453 2.9082031 C 11.05754 2.6634026 11.751292 2.9639437 11.996094 3.5820312 L 12.326172 4.4160156 A 12.5 12.5 0 0 1 14 4.1054688 L 14 3.1992188 C 14 2.5344186 14.534419 2 15.199219 2 L 15.800781 2 C 16.465581 2 17 2.5344184 17 3.1992188 L 17 4.1015625 A 12.5 12.5 0 0 1 18.669922 4.4257812 L 19.003906 3.5820312 C 19.248708 2.9639441 19.94246 2.6634026 20.560547 2.9082031 L 21.119141 3.1289062 C 21.421077 3.2484925 21.643751 3.4772984 21.767578 3.75 L 21.792969 3.6855469 C 22.037769 3.06746 21.737225 2.3737071 21.119141 2.1289062 L 20.560547 1.9082031 C 19.94246 1.6634026 19.248708 1.963944 19.003906 2.5820312 L 18.669922 3.4257812 A 12.5 12.5 0 0 0 17 3.1015625 L 17 2.1992188 C 17 1.5344184 16.465581 1 15.800781 1 L 15.199219 1 z M 6.3066406 4.6816406 C 5.9998454 4.6816406 5.6940266 4.800114 5.4589844 5.0351562 L 5.0351562 5.4589844 C 4.6682868 5.8258538 4.5969699 6.3649583 4.8027344 6.8085938 C 4.8606724 6.6832354 4.9315398 6.5626009 5.0351562 6.4589844 L 5.4589844 6.0351562 C 5.9290689 5.5650718 6.6861653 5.5650717 7.15625 6.0351562 L 7.7890625 6.6679688 A 12.5 12.5 0 0 1 9.5390625 5.5253906 L 9.2207031 4.71875 A 12.5 12.5 0 0 0 7.7890625 5.6679688 L 7.15625 5.0351562 C 6.9212076 4.800114 6.6134359 4.6816406 6.3066406 4.6816406 z M 24.693359 4.6816406 C 24.386564 4.6816406 24.078793 4.800114 23.84375 5.0351562 L 23.205078 5.6738281 A 12.5 12.5 0 0 0 21.785156 4.7070312 L 21.464844 5.515625 A 12.5 12.5 0 0 1 23.205078 6.6738281 L 23.84375 6.0351562 C 24.313835 5.5650718 25.070931 5.5650718 25.541016 6.0351562 L 25.964844 6.4589844 C 26.06846 6.5626009 26.139328 6.6832354 26.197266 6.8085938 C 26.40303 6.3649584 26.331713 5.8258538 25.964844 5.4589844 L 25.541016 5.0351562 C 25.305973 4.800114 25.000155 4.6816406 24.693359 4.6816406 z M 25.753906 8.3671875 L 25.332031 8.7890625 A 12.5 12.5 0 0 1 26.474609 10.539062 L 27.314453 10.207031 C 27.932541 9.9622309 28.626293 10.262773 28.871094 10.880859 L 29.066406 11.375 C 29.196062 11.089464 29.217012 10.755602 29.091797 10.439453 L 28.871094 9.8808594 C 28.626293 9.2627727 27.932541 8.9622306 27.314453 9.2070312 L 26.474609 9.5390625 A 12.5 12.5 0 0 0 25.753906 8.3671875 z M 5.2558594 8.3769531 A 12.5 12.5 0 0 0 4.515625 9.5351562 L 3.6855469 9.2070312 C 3.0674597 8.9622307 2.373707 9.2627724 2.1289062 9.8808594 L 1.9082031 10.439453 C 1.7829886 10.755602 1.8039389 11.089464 1.9335938 11.375 L 2.1289062 10.880859 C 2.373707 10.262772 3.0674597 9.9622309 3.6855469 10.207031 L 4.515625 10.535156 A 12.5 12.5 0 0 1 5.6738281 8.7949219 L 5.2558594 8.3769531 z M 3.2304688 13.251953 A 12.5 12.5 0 0 0 3.1015625 14 L 2.1992188 14 C 1.5344184 14 1 14.534419 1 15.199219 L 1 15.800781 C 1 15.871363 1.0274981 15.932841 1.0390625 16 C 1.136422 15.434598 1.6050002 15 2.1992188 15 L 3.1015625 15 A 12.5 12.5 0 0 1 3.4257812 13.330078 L 3.2304688 13.251953 z M 27.769531 13.251953 L 27.583984 13.326172 A 12.5 12.5 0 0 1 27.894531 15 L 28.800781 15 C 29.395 15 29.863578 15.434598 29.960938 16 C 29.972502 15.932841 30 15.871363 30 15.800781 L 30 15.199219 C 30 14.534419 29.465581 14 28.800781 14 L 27.894531 14 A 12.5 12.5 0 0 0 27.769531 13.251953 z M 3.2304688 18.748047 L 2.5820312 19.003906 C 1.9639474 19.248708 1.6634031 19.94246 1.9082031 20.560547 L 1.9335938 20.625 C 2.057421 20.352298 2.2800946 20.123493 2.5820312 20.003906 L 3.4160156 19.673828 A 12.5 12.5 0 0 1 3.2304688 18.748047 z M 27.769531 18.748047 A 12.5 12.5 0 0 1 27.574219 19.669922 L 28.417969 20.003906 C 28.719907 20.123493 28.942579 20.352298 29.066406 20.625 L 29.091797 20.560547 C 29.336597 19.94246 29.036053 19.248708 28.417969 19.003906 L 27.769531 18.748047 z M 25.744141 23.623047 A 12.5 12.5 0 0 1 25.326172 24.205078 L 25.964844 24.84375 C 26.068059 24.946965 26.139376 25.066594 26.197266 25.191406 C 26.402179 24.748042 26.331311 24.210218 25.964844 23.84375 L 25.744141 23.623047 z M 5.2460938 23.632812 L 5.0351562 23.84375 C 4.6686882 24.210218 4.5978208 24.748042 4.8027344 25.191406 C 4.8606242 25.066594 4.9319412 24.946965 5.0351562 24.84375 L 5.6679688 24.210938 A 12.5 12.5 0 0 1 5.2460938 23.632812 z M 21.779297 27.28125 A 12.5 12.5 0 0 1 21.460938 27.474609 L 21.767578 28.25 C 21.897233 27.964464 21.918183 27.630602 21.792969 27.314453 L 21.779297 27.28125 z M 9.2148438 27.292969 L 9.2070312 27.314453 C 9.0818168 27.630602 9.102767 27.964464 9.2324219 28.25 L 9.5351562 27.484375 A 12.5 12.5 0 0 1 9.2148438 27.292969 z"/>
 <path style="opacity:0.1;fill:#ffffff" d="M 21 7 C 18.9375 7 11.042288 6.9998958 11 12.734375 C 11.000435 12.885127 11.02181 13.031857 11.052734 13.177734 C 11.600357 8.0157863 19.00856 8 21 8 L 21 7 z M 18.025391 15.041016 C 17.981098 15.145925 17.949219 15.256324 17.949219 15.382812 C 17.949219 17.374261 19.664635 17.741034 19.972656 19.314453 C 19.983012 19.221117 20.004771 19.139906 20.011719 19.042969 C 20.155499 17.048764 18.403925 16.704128 18.025391 15.041016 z M 13.378906 18.085938 C 13.175575 18.567979 12.586042 19.039534 12.083984 19.03125 C 11.047739 19.11184 10 18.744141 10 18.744141 L 10.001953 19.744141 C 10.004874 19.745166 11.049188 20.111727 12.083984 20.03125 C 12.750628 20.04225 13.572193 19.208304 13.4375 18.625 C 13.453249 18.444741 13.428608 18.265169 13.378906 18.085938 z"/>
</svg>

<svg xmlns="http://www.w3.org/2000/svg" width="32" height="32" version="1"><path style="opacity:.2" d="M15.2 2c-.666 0-1.2.534-1.2 1.2v.905a12.5 12.5 0 0 0-1.674.311l-.33-.834a1.196 1.196 0 0 0-1.557-.674l-.558.22a1.196 1.196 0 0 0-.674 1.558l.332.84a12.5 12.5 0 0 0-1.75 1.142l-.633-.633a1.198 1.198 0 0 0-1.697 0l-.424.424c-.47.47-.47 1.227 0 1.697l.639.639a12.5 12.5 0 0 0-1.158 1.74l-.83-.328a1.196 1.196 0 0 0-1.557.674l-.22.558a1.196 1.196 0 0 0 .673 1.557l.844.334A12.5 12.5 0 0 0 3.102 15h-.903C1.534 15 1 15.534 1 16.2v.6c0 .666.534 1.2 1.2 1.2h.905a12.5 12.5 0 0 0 .311 1.674l-.834.33a1.196 1.196 0 0 0-.674 1.557l.22.558c.246.618.94.919 1.558.674l.84-.332a12.5 12.5 0 0 0 1.142 1.75l-.633.633c-.47.47-.47 1.227 0 1.697l.424.424c.47.47 1.227.47 1.697 0l.639-.639a12.5 12.5 0 0 0 1.74 1.158l-.328.83a1.196 1.196 0 0 0 .674 1.557l.558.22a1.196 1.196 0 0 0 1.557-.673l.334-.844a12.5 12.5 0 0 0 1.67.324v.903c0 .665.534 1.199 1.2 1.199h.6c.666 0 1.2-.534 1.2-1.2v-.905a12.5 12.5 0 0 0 1.674-.311l.33.834c.245.618.938.919 1.557.674l.558-.22c.618-.246.919-.94.674-1.558l-.332-.84a12.5 12.5 0 0 0 1.75-1.142l.633.633c.47.47 1.227.47 1.697 0l.424-.424c.47-.47.47-1.227 0-1.697l-.639-.639a12.5 12.5 0 0 0 1.158-1.74l.83.328a1.196 1.196 0 0 0 1.557-.674l.22-.558a1.196 1.196 0 0 0-.673-1.557l-.844-.334a12.5 12.5 0 0 0 .324-1.67h.903c.665 0 1.199-.534 1.199-1.2v-.6c0-.666-.534-1.2-1.2-1.2h-.905a12.5 12.5 0 0 0-.311-1.674l.834-.33c.618-.245.919-.938.674-1.557l-.22-.558a1.196 1.196 0 0 0-1.558-.674l-.84.332a12.5 12.5 0 0 0-1.142-1.75l.633-.633c.47-.47.47-1.227 0-1.697l-.424-.424a1.198 1.198 0 0 0-1.697 0l-.639.639a12.5 12.5 0 0 0-1.74-1.158l.328-.83a1.196 1.196 0 0 0-.674-1.557l-.558-.22a1.196 1.196 0 0 0-1.557.673l-.334.844A12.5 12.5 0 0 0 17 4.102v-.903C17 2.534 16.466 2 15.8 2z"/><path style="fill:#574b37" d="M15.2 1c-.666 0-1.2.534-1.2 1.2v.905a12.5 12.5 0 0 0-1.674.311l-.33-.834a1.196 1.196 0 0 0-1.557-.674l-.558.22a1.196 1.196 0 0 0-.674 1.558l.332.84a12.5 12.5 0 0 0-1.75 1.142l-.633-.633a1.198 1.198 0 0 0-1.697 0l-.424.424c-.47.47-.47 1.227 0 1.697l.639.639a12.5 12.5 0 0 0-1.158 1.74l-.83-.328a1.196 1.196 0 0 0-1.557.674l-.22.558a1.196 1.196 0 0 0 .673 1.557l.844.334A12.5 12.5 0 0 0 3.102 14h-.903C1.534 14 1 14.534 1 15.2v.6c0 .666.534 1.2 1.2 1.2h.905a12.5 12.5 0 0 0 .311 1.674l-.834.33a1.196 1.196 0 0 0-.674 1.557l.22.558c.246.618.94.919 1.558.674l.84-.332a12.5 12.5 0 0 0 1.142 1.75l-.633.633c-.47.47-.47 1.227 0 1.697l.424.424c.47.47 1.227.47 1.697 0l.639-.639a12.5 12.5 0 0 0 1.74 1.158l-.328.83a1.196 1.196 0 0 0 .674 1.557l.558.22a1.196 1.196 0 0 0 1.557-.673l.334-.844a12.5 12.5 0 0 0 1.67.324v.903c0 .665.534 1.199 1.2 1.199h.6c.666 0 1.2-.534 1.2-1.2v-.905a12.5 12.5 0 0 0 1.674-.311l.33.834c.245.618.938.919 1.557.674l.558-.22c.618-.246.919-.94.674-1.558l-.332-.84a12.5 12.5 0 0 0 1.75-1.142l.633.633c.47.47 1.227.47 1.697 0l.424-.424c.47-.47.47-1.227 0-1.697l-.639-.639a12.5 12.5 0 0 0 1.158-1.74l.83.328a1.196 1.196 0 0 0 1.557-.674l.22-.558a1.196 1.196 0 0 0-.673-1.557l-.844-.334a12.5 12.5 0 0 0 .324-1.67h.903c.665 0 1.199-.534 1.199-1.2v-.6c0-.666-.534-1.2-1.2-1.2h-.905a12.5 12.5 0 0 0-.311-1.674l.834-.33c.618-.245.919-.938.674-1.557l-.22-.558a1.196 1.196 0 0 0-1.558-.674l-.84.332a12.5 12.5 0 0 0-1.142-1.75l.633-.633c.47-.47.47-1.227 0-1.697l-.424-.424a1.198 1.198 0 0 0-1.697 0l-.639.639a12.5 12.5 0 0 0-1.74-1.158l.328-.83a1.196 1.196 0 0 0-.674-1.557l-.558-.22a1.196 1.196 0 0 0-1.557.673l-.334.844A12.5 12.5 0 0 0 17 3.102v-.903C17 1.534 16.466 1 15.8 1h-.6z"/><path style="opacity:.2" d="M21 8v5.967s-3.05 0-3.05 1.416c0 2.268 2.223 2.426 2.062 4.66-.403 5.623-6.613 5.133-10.004 4.838L10 19.743s1.047.368 2.083.288c.667.01 1.49-.823 1.354-1.406.135-1.542-2.432-3.019-2.437-4.89C11.042 8 18.938 8 21 8z"/><path style="fill:#3264e0" d="M21 7v5.967s-3.05 0-3.05 1.416c0 2.268 2.223 2.426 2.062 4.66-.403 5.623-6.613 5.133-10.004 4.838L10 18.743s1.047.368 2.083.288c.667.01 1.49-.823 1.354-1.406.135-1.542-2.432-3.019-2.437-4.89C11.042 7 18.938 7 21 7z"/><path style="opacity:.1;fill:#fff" d="M15.2 1c-.666 0-1.2.534-1.2 1.2v.905a12.5 12.5 0 0 0-1.674.311l-.33-.834a1.196 1.196 0 0 0-1.557-.674l-.558.22a1.196 1.196 0 0 0-.674 1.558l.025.064c.124-.273.347-.502.649-.621l.558-.22a1.196 1.196 0 0 1 1.557.673l.33.834A12.5 12.5 0 0 1 14 4.106v-.907C14 2.534 14.534 2 15.2 2h.6c.666 0 1.2.534 1.2 1.2v.902a12.5 12.5 0 0 1 1.67.324l.334-.844a1.196 1.196 0 0 1 1.557-.674l.558.22c.302.12.525.35.649.622l.025-.064a1.196 1.196 0 0 0-.674-1.557l-.558-.22a1.196 1.196 0 0 0-1.557.673l-.334.844A12.5 12.5 0 0 0 17 3.102v-.903C17 1.534 16.466 1 15.8 1h-.6zM6.306 4.682c-.307 0-.613.118-.848.353l-.424.424a1.19 1.19 0 0 0-.232 1.35c.058-.126.129-.246.232-.35l.424-.424c.47-.47 1.227-.47 1.697 0l.633.633a12.5 12.5 0 0 1 1.75-1.143l-.318-.806a12.5 12.5 0 0 0-1.432.949l-.633-.633a1.2 1.2 0 0 0-.85-.353zm18.386 0a1.2 1.2 0 0 0-.85.353l-.638.639a12.5 12.5 0 0 0-1.42-.967l-.32.809a12.5 12.5 0 0 1 1.74 1.158l.639-.639c.47-.47 1.227-.47 1.697 0l.424.424c.103.104.174.224.232.35a1.19 1.19 0 0 0-.232-1.35l-.424-.424a1.195 1.195 0 0 0-.848-.353zm1.06 3.685-.421.422a12.5 12.5 0 0 1 1.143 1.75l.84-.332a1.196 1.196 0 0 1 1.556.674l.195.494c.13-.286.151-.62.026-.936l-.22-.558a1.196 1.196 0 0 0-1.558-.674l-.84.332a12.5 12.5 0 0 0-.72-1.172zm-20.497.01a12.5 12.5 0 0 0-.74 1.158l-.83-.328a1.196 1.196 0 0 0-1.557.674l-.22.558a1.19 1.19 0 0 0 .025.936l.195-.494a1.196 1.196 0 0 1 1.557-.674l.83.328a12.5 12.5 0 0 1 1.158-1.74l-.418-.418zM3.23 13.252a12.5 12.5 0 0 0-.128.748h-.903C1.534 14 1 14.534 1 15.2v.6c0 .071.027.133.04.2.096-.565.565-1 1.16-1h.902a12.5 12.5 0 0 1 .324-1.67l-.196-.078zm24.54 0-.186.074a12.5 12.5 0 0 1 .31 1.674h.907c.594 0 1.063.435 1.16 1 .012-.067.039-.129.039-.2v-.6c0-.666-.534-1.2-1.2-1.2h-.905a12.5 12.5 0 0 0-.125-.748zM3.23 18.748l-.648.256a1.196 1.196 0 0 0-.674 1.557l.026.064c.123-.273.346-.502.648-.621l.834-.33a12.5 12.5 0 0 1-.186-.926zm24.54 0a12.5 12.5 0 0 1-.196.922l.844.334c.302.12.525.348.648.621l.026-.064a1.196 1.196 0 0 0-.674-1.557l-.648-.256zm-2.026 4.875a12.5 12.5 0 0 1-.418.582l.639.639c.103.103.174.223.232.347a1.19 1.19 0 0 0-.232-1.347l-.22-.221zm-20.498.01-.21.21a1.19 1.19 0 0 0-.233 1.348c.058-.124.129-.244.232-.347l.633-.633a12.5 12.5 0 0 1-.422-.578zM21.78 27.28a12.5 12.5 0 0 1-.318.194l.307.775c.13-.286.15-.62.025-.936l-.014-.033zm-12.564.012-.008.021a1.19 1.19 0 0 0 .025.936l.303-.766a12.5 12.5 0 0 1-.32-.191zM21 7c-2.063 0-9.958 0-10 5.734 0 .151.022.298.053.444C11.6 8.016 19.009 8 21 8V7zm-2.975 8.041a.861.861 0 0 0-.076.342c0 1.991 1.716 2.358 2.024 3.931.01-.093.032-.174.039-.271.143-1.994-1.608-2.339-1.987-4.002zm-4.646 3.045c-.203.482-.793.954-1.295.945-1.036.08-2.084-.287-2.084-.287l.002 1c.003.001 1.047.368 2.082.287.667.011 1.488-.823 1.354-1.406.015-.18-.01-.36-.06-.54z"/></svg>
